X: 8621
T: Crooked Ladder, The
R: jig
M: 6/8
K: Bminor
|:~f3 gfe|fdc BAF|GBd fdg|eaf gfe|
~f3 gfe|fdc BAF|GBd fed|1 edc B3:|2 edc B2A||
|:FBd FBd|GBd GBd|Ace Ace|dcB cBA|
FBd FBd|GBd GBd|Ace fed|1 edc B2A:|2 edc B3||

